src/sprites/svg/google_plus.svg

<svg xmlns="http://www.w3.org/2000/svg" viewBox="0 0 34 36">
  <path d="M34 16.25h-3.75V20h-2.48v-3.75h-3.75v-2.5h3.75V10h2.48v3.76H34v2.5zM17.2 1.7c.3.2.64.46 1 .8.37.38.72.83 1.06 1.37.33.5.62 1.1.87 1.8.2.7.32 1.5.32 2.42-.03 1.68-.4 3.04-1.13 4.05-.35.5-.73.95-1.12 1.36-.44.43-.9.85-1.4 1.28-.28.3-.55.62-.8 1-.27.38-.4.82-.4 1.33 0 .5.13.9.42 1.23.25.3.5.58.72.8l1.6 1.33c1 .8 1.9 1.7 2.65 2.7.7 1 1.07 2.3 1.1 3.92 0 2.28-1.02 4.3-3.05 6.08C16.95 35 13.9 35.94 9.93 36c-3.33-.03-5.8-.74-7.45-2.12C.83 32.58 0 31.05 0 29.26c0-.88.27-1.85.8-2.93.53-1.07 1.48-2.02 2.84-2.83 1.54-.88 3.16-1.46 4.85-1.75 1.67-.25 3.06-.38 4.17-.4-.35-.46-.65-.94-.92-1.45-.3-.5-.47-1.1-.47-1.8 0-.4.06-.75.18-1.03.1-.3.2-.57.3-.8-.55.05-1.06.08-1.54.08-2.52-.03-4.45-.82-5.77-2.38-1.4-1.44-2.08-3.12-2.08-5.04 0-2.33.98-4.43 2.94-6.32C6.67 1.5 8.08.8 9.53.45c1.44-.3 2.8-.44 4.05-.44h9.5l-2.94 1.7H17.2zm-6.16 21.02c-1 .14-2 .36-3.02.67-.24.08-.58.22-1.02.4-.44.2-.9.5-1.34.85-.44.4-.8.87-1.1 1.44-.36.6-.53 1.3-.53 2.15 0 1.66.75 3.03 2.27 4.1 1.43 1.1 3.4 1.64 5.9 1.67 2.23-.03 3.94-.52 5.12-1.48 1.14-.93 1.72-2.14 1.72-3.62 0-1.2-.4-2.24-1.18-3.13-.83-.86-2.13-1.9-3.9-3.13-.3-.03-.66-.05-1.07-.05-.25-.02-.87 0-1.86.1zM15 4.64c-.46-.9-1.05-1.65-1.8-2.22-.74-.54-1.6-.82-2.57-.85-1.28.03-2.35.54-3.2 1.54-.73 1.06-1.07 2.23-1.04 3.53 0 1.7.5 3.5 1.5 5.34.48.86 1.1 1.6 1.88 2.2.77.6 1.65.9 2.64.9 1.25-.05 2.3-.5 3.12-1.35.4-.6.66-1.2.78-1.85.07-.63.1-1.16.1-1.6 0-1.86-.48-3.74-1.43-5.63z"/>
</svg>

<?xml version="1.0" encoding="utf-8"?>
<svg xmlns="http://www.w3.org/2000/svg"
	xmlns:xlink="http://www.w3.org/1999/xlink"
	viewBox="0 0 34 36">
<path fillRule="evenodd" d="M 34 16.25C 34 16.25 30.25 16.25 30.25 16.25 30.25 16.25 30.25 20 30.25 20 30.25 20 27.77 20 27.77 20 27.77 20 27.77 16.25 27.77 16.25 27.77 16.25 24.02 16.25 24.02 16.25 24.02 16.25 24.02 13.76 24.02 13.76 24.02 13.76 27.77 13.76 27.77 13.76 27.77 13.76 27.77 9.99 27.77 9.99 27.77 9.99 30.25 9.99 30.25 9.99 30.25 9.99 30.25 13.76 30.25 13.76 30.25 13.76 34 13.76 34 13.76 34 13.76 34 16.25 34 16.25ZM 17.21 1.7C 17.5 1.89 17.84 2.16 18.21 2.51 18.57 2.88 18.92 3.33 19.26 3.87 19.59 4.38 19.88 4.98 20.13 5.67 20.34 6.36 20.45 7.17 20.45 8.09 20.42 9.78 20.04 11.14 19.32 12.15 18.97 12.64 18.59 13.1 18.2 13.51 17.76 13.93 17.29 14.35 16.8 14.78 16.52 15.07 16.25 15.4 16.01 15.77 15.73 16.16 15.59 16.6 15.59 17.11 15.59 17.6 15.73 18.01 16.02 18.33 16.27 18.64 16.51 18.91 16.74 19.14 16.74 19.14 18.35 20.46 18.35 20.46 19.35 21.27 20.23 22.17 20.99 23.15 21.7 24.15 22.07 25.46 22.1 27.08 22.1 29.36 21.08 31.39 19.05 33.16 16.94 34.99 13.9 35.94 9.93 36 6.6 35.97 4.12 35.26 2.48 33.88 0.83 32.59-0 31.05-0 29.26-0 28.38 0.27 27.41 0.81 26.33 1.33 25.26 2.28 24.31 3.64 23.5 5.18 22.62 6.8 22.04 8.49 21.75 10.17 21.5 11.56 21.37 12.67 21.34 12.32 20.89 12.02 20.41 11.75 19.9 11.44 19.4 11.28 18.81 11.28 18.11 11.28 17.69 11.34 17.35 11.46 17.07 11.56 16.78 11.66 16.5 11.75 16.26 11.21 16.32 10.7 16.35 10.22 16.35 7.7 16.32 5.77 15.53 4.45 13.97 3.06 12.53 2.37 10.85 2.37 8.93 2.37 6.6 3.35 4.5 5.31 2.61 6.66 1.5 8.07 0.78 9.52 0.44 10.96 0.15 12.31-0 13.57-0 13.57-0 23.07-0 23.07-0 23.07-0 20.13 1.7 20.13 1.7 20.13 1.7 17.21 1.7 17.21 1.7ZM 11.04 22.72C 10.05 22.86 9.05 23.08 8.02 23.39 7.78 23.48 7.44 23.62 7 23.8 6.56 24 6.11 24.29 5.66 24.65 5.22 25.04 4.85 25.52 4.55 26.09 4.2 26.69 4.03 27.41 4.03 28.25 4.03 29.91 4.78 31.28 6.3 32.36 7.73 33.44 9.7 33.99 12.19 34.02 14.43 33.99 16.14 33.5 17.32 32.54 18.46 31.61 19.04 30.4 19.04 28.92 19.04 27.72 18.65 26.68 17.86 25.79 17.03 24.94 15.73 23.9 13.96 22.67 13.66 22.64 13.3 22.62 12.89 22.62 12.65 22.6 12.03 22.62 11.04 22.72ZM 14.99 4.64C 14.54 3.73 13.95 2.99 13.21 2.42 12.46 1.88 11.6 1.6 10.63 1.57 9.35 1.6 8.28 2.11 7.42 3.11 6.7 4.16 6.36 5.33 6.39 6.63 6.39 8.34 6.89 10.12 7.9 11.97 8.38 12.83 9.01 13.56 9.78 14.16 10.55 14.76 11.43 15.06 12.42 15.06 13.67 15.02 14.71 14.57 15.54 13.72 15.95 13.12 16.2 12.51 16.32 11.87 16.39 11.24 16.42 10.71 16.42 10.28 16.42 8.41 15.94 6.53 14.99 4.64Z"/></svg>
